X:1
T:Title
%%score [ ( 1 2 ) ( 3 4 ) ]
L:1/8
Q:1/4=240
M:4/4
K:Eb
V:1 treble nm="Midi_74"
V:2 treble 
V:3 bass nm="Midi_74"
V:4 bass 
V:1
"^Psalm 147" B8 | e4 c4 | d8 || B8 | c4 A4 | B4 G4 | F8 || A8 | _d4 B4 | c8 || F8 | B4 G4 | A4 F4 | %13
"^Charles Villiers Stanford" E8 |] %14
V:2
 E8 | E4 F4 | F8 || E8 | E4 F4 | D4 E4 | D8 || C8 | F4 E4 | E8 || D8 | D4 E4 | E4 D4 | E8 |] %14
V:3
 G,8 | G,4 =A,4 | B,8 || G,8 | A,4 C4 | B,4 B,4 | B,8 || A,8 | A,4 G,4 | A,8 || B,8 | B,4 C4 | %12
 C4 A,4 | G,8 |] %14
V:4
 E,8 | C,4 F,4 | B,,8 || E,8 | A,4 F,4 | G,4 E,4 | B,,8 || F,8 | _D,4 E,4 | A,,8 || A,8 | G,4 C,4 | %12
 F,4 B,,4 | E,8 |] %14

